public/images/icon_copy.svg

<svg fill="none" height="24" viewBox="0 0 24 24" width="24" xmlns="http://www.w3.org/2000/svg"><path d="m16.8001.799988.2774-.416025-.126-.083975h-.1514zm4.8 3.200002h.5v-.26759l-.2226-.14844zm-1.6 15.50001h-12.79995v1h12.79995zm-13.89995-1.1v-16.00001h-1v16.00001zm1.1-17.10001h9.59995v-1.000002h-9.59995zm13.89995 2.7v14.40001h1v-14.40001zm-4.5773-2.78398 4.8 3.2.5547-.83205-4.8-3.199997zm-9.32265 18.28399c-.60752 0-1.1-.4925-1.1-1.1h-1c0 1.1598.9402 2.1 2.1 2.1zm12.79995 1c1.1598 0 2.1-.9402 2.1-2.1h-1c0 .6075-.4924 1.1-1.1 1.1zm-13.89995-18.10001c0-.60752.49248-1.1 1.1-1.1v-1.000002c-1.1598 0-2.1.940202-2.1 2.100002zm-4.2 3.2v16.00001h1v-16.00001zm2.1 18.10001h12.79995v-1h-12.79995zm0-19.20001h1.6v-1h-1.6zm14.89995 17.10001v-1.6h-1v1.6zm-2.1 2.1c1.1598 0 2.1-.9402 2.1-2.1h-1c0 .6075-.4924 1.1-1.1 1.1zm-14.89995-2.1c0 1.1598.9402 2.1 2.1 2.1v-1c-.60752 0-1.1-.4925-1.1-1.1zm1-16.00001c0-.60752.49248-1.1 1.1-1.1v-1c-1.1598 0-2.1.9402-2.1 2.1z" fill="#ddd"/></svg>

<svg width="24" height="24" viewBox="0 0 24 24" fill="none" xmlns="http://www.w3.org/2000/svg">
<path d="M16.8001 0.799988L17.0775 0.383963L16.9515 0.299988H16.8001V0.799988ZM21.6001 3.99999H22.1001V3.7324L21.8775 3.58396L21.6001 3.99999ZM20.0001 19.5H7.20015V20.5H20.0001V19.5ZM6.10015 18.4V2.39999H5.10015V18.4H6.10015ZM7.20015 1.29999H16.8001V0.299988H7.20015V1.29999ZM21.1001 3.99999V18.4H22.1001V3.99999H21.1001ZM16.5228 1.21601L21.3228 4.41601L21.8775 3.58396L17.0775 0.383963L16.5228 1.21601ZM7.20015 19.5C6.59263 19.5 6.10015 19.0075 6.10015 18.4H5.10015C5.10015 19.5598 6.04035 20.5 7.20015 20.5V19.5ZM20.0001 20.5C21.1599 20.5 22.1001 19.5598 22.1001 18.4H21.1001C21.1001 19.0075 20.6077 19.5 20.0001 19.5V20.5ZM6.10015 2.39999C6.10015 1.79247 6.59263 1.29999 7.20015 1.29999V0.299988C6.04035 0.299988 5.10015 1.24019 5.10015 2.39999H6.10015ZM1.90015 5.59999V21.6H2.90015V5.59999H1.90015ZM4.00015 23.7H16.8001V22.7H4.00015V23.7ZM4.00015 4.49999H5.60015V3.49999H4.00015V4.49999ZM18.9001 21.6V20H17.9001V21.6H18.9001ZM16.8001 23.7C17.9599 23.7 18.9001 22.7598 18.9001 21.6H17.9001C17.9001 22.2075 17.4077 22.7 16.8001 22.7V23.7ZM1.90015 21.6C1.90015 22.7598 2.84035 23.7 4.00015 23.7V22.7C3.39263 22.7 2.90015 22.2075 2.90015 21.6H1.90015ZM2.90015 5.59999C2.90015 4.99247 3.39263 4.49999 4.00015 4.49999V3.49999C2.84035 3.49999 1.90015 4.44019 1.90015 5.59999H2.90015Z" fill="#DDDDDD"/>
</svg>
